Adwaita++/apps/scalable/dvdrip.svg

<svg enable-background="new" height="128" viewBox="0 0 128 128" width="128" xmlns="http://www.w3.org/2000/svg">
  <rect height="45.833" opacity=".2" rx="1.142" ry="1.021" width="110" x="10" y="74.17"/>
  <path d="m65.000004 35.142858a27.857144 27.857142 0 0 0 -27.857146 27.857142 27.857144 27.857142 0 0 0 27.857146 27.857144 27.857144 27.857142 0 0 0 27.857142-27.857144 27.857144 27.857142 0 0 0 -27.857142-27.857142zm0 16.714285c6.154201 0 11.142854 4.988658 11.142854 11.142857 0 6.1542-4.988653 11.142858-11.142854 11.142858s-11.142859-4.988658-11.142859-11.142858c0-6.154199 4.988658-11.142857 11.142859-11.142857z" fill="#939393"/>
  <path d="m65.000004 11c-28.807999 0-52.000004 23.192-52.000004 52 0 28.808001 23.192005 52 52.000004 52s51.999996-23.191999 51.999996-52c0-28.808-23.191997-52-51.999996-52zm0 29.714286a22.285716 22.285714 0 0 1 22.285713 22.285714 22.285716 22.285714 0 0 1 -22.285713 22.285715 22.285716 22.285714 0 0 1 -22.285715-22.285715 22.285716 22.285714 0 0 1 22.285715-22.285714z" fill="#e4e4e4"/>
  <rect fill="#3162c3" height="45.833" rx="1.142" ry="1.021" width="110" x="10" y="72.17"/>
  <g enable-background="new" fill="#fff">
    <rect height="10" rx="1.3" width="10" x="23.922294" y="84.083334"/>
    <rect height="10" rx="1.3" width="10" x="35.922294" y="84.083334"/>
    <rect height="10" rx="1.3" width="10" x="23.922294" y="96.083334"/>
    <rect height="10" rx="1.3" width="10" x="35.922294" y="96.083334"/>
    <g transform="matrix(1.0031083 0 0 1.0031083 -2.394404 5.757871)">
      <path d="m67.393806 84.165863q-.917968-.429687-1.835937-.625-.898438-.214844-1.816406-.214844-2.695313 0-4.160157 1.738282-1.445312 1.71875-1.445312 4.941406v10.078123h-6.992188v-21.874998h6.992188v3.59375q1.347656-2.148438 3.085937-3.125 1.757813-.996094 4.199219-.996094.351563 0 .761719.03906.410156.01953 1.191406.117187z"/>
      <path d="m70.909431 78.208832h6.992188v21.874998h-6.992188zm0-8.515625h6.992188v5.703125h-6.992188z"/>
      <path d="m91.651619 96.919769v11.484371h-6.992188v-30.195308h6.992188v3.203125q1.445312-1.914063 3.203125-2.8125 1.757812-.917969 4.042969-.917969 4.042967 0 6.640627 3.222656 2.59765 3.203125 2.59765 8.261719 0 5.058594-2.59765 8.28125-2.59766 3.203127-6.640627 3.203127-2.285157 0-4.042969-.898439-1.757813-.917969-3.203125-2.832032zm4.648437-14.160156q-2.246093 0-3.457031 1.660156-1.191406 1.640625-1.191406 4.746094 0 3.105469 1.191406 4.765625 1.210938 1.640625 3.457031 1.640625 2.246094 0 3.417969-1.640625 1.191405-1.640625 1.191405-4.765625 0-3.125-1.191405-4.765625-1.171875-1.640625-3.417969-1.640625z"/>
    </g>
  </g>
</svg>

<svg xmlns="http://www.w3.org/2000/svg" xmlns:xlink="http://www.w3.org/1999/xlink" style="enable-background:new" width="128" height="128" version="1.0" viewBox="0 0 128 128">
 <title id="title4162">
  Adwaita Icon Template
 </title>
 <defs>
  <linearGradient id="linearGradient950">
   <stop style="stop-color:#9a9996" id="stop946" offset="0"/>
   <stop style="stop-color:#77767b" id="stop948" offset="1"/>
  </linearGradient>
  <linearGradient id="linearGradient1001" x1="1660.857" x2="1662.99" y1="806.297" y2="812.882" gradientTransform="matrix(1.8293937,-0.81599442,0.81599442,1.8293937,-3645.9624,100.02949)" gradientUnits="userSpaceOnUse" xlink:href="#linearGradient950"/>
 </defs>
 <rect width="110" height="45.833" x="10" y="74.17" rx="1.142" ry="1.021" style="opacity:0.2"/>
 <path style="fill:#939393" d="M 65.000004,35.142858 A 27.857144,27.857142 0 0 0 37.142858,63 27.857144,27.857142 0 0 0 65.000004,90.857144 27.857144,27.857142 0 0 0 92.857146,63 27.857144,27.857142 0 0 0 65.000004,35.142858 Z m 0,16.714285 c 6.154201,0 11.142854,4.988658 11.142854,11.142857 0,6.1542 -4.988653,11.142858 -11.142854,11.142858 -6.154201,0 -11.142859,-4.988658 -11.142859,-11.142858 0,-6.154199 4.988658,-11.142857 11.142859,-11.142857 z"/>
 <path style="fill:#e4e4e4" d="M 65.000004,11 C 36.192005,11 13,34.192 13,63 13,91.808001 36.192005,115 65.000004,115 93.808003,115 117,91.808001 117,63 117,34.192 93.808003,11 65.000004,11 Z m 0,29.714286 A 22.285716,22.285714 0 0 1 87.285717,63 22.285716,22.285714 0 0 1 65.000004,85.285715 22.285716,22.285714 0 0 1 42.714289,63 22.285716,22.285714 0 0 1 65.000004,40.714286 Z"/>
 <rect style="fill:#3162c3" width="110" height="45.833" x="10" y="72.17" rx="1.142" ry="1.021"/>
 <g style="enable-background:new" transform="translate(8.9222937,1.209799)">
  <g transform="translate(0,4.873535)">
   <rect style="fill:#ffffff" width="10" height="10" x="15" y="78" rx="1.3" ry="1.3"/>
   <rect width="10" height="10" x="27" y="78" rx="1.3" ry="1.3" style="fill:#ffffff"/>
   <rect width="10" height="10" x="15" y="90" rx="1.3" ry="1.3" style="fill:#ffffff"/>
   <rect style="fill:#ffffff" width="10" height="10" x="27" y="90" rx="1.3" ry="1.3"/>
  </g>
  <g id="text1461" transform="matrix(1.0031083,0,0,1.0031083,-11.316698,4.5480715)" style="font-size:40px;line-height:1.25;letter-spacing:0px;word-spacing:0px;fill:#ffffff">
   <path d="m 67.393806,84.165863 q -0.917968,-0.429687 -1.835937,-0.625 -0.898438,-0.214844 -1.816406,-0.214844 -2.695313,0 -4.160157,1.738282 -1.445312,1.71875 -1.445312,4.941406 V 100.08383 H 51.143806 V 78.208832 h 6.992188 v 3.59375 q 1.347656,-2.148438 3.085937,-3.125 1.757813,-0.996094 4.199219,-0.996094 0.351563,0 0.761719,0.03906 0.410156,0.01953 1.191406,0.117187 z" style="fill:#ffffff"/>
   <path d="m 70.909431,78.208832 h 6.992188 v 21.874998 h -6.992188 z m 0,-8.515625 h 6.992188 v 5.703125 h -6.992188 z" style="fill:#ffffff"/>
   <path d="M 91.651619,96.919769 V 108.40414 H 84.659431 V 78.208832 h 6.992188 v 3.203125 q 1.445312,-1.914063 3.203125,-2.8125 1.757812,-0.917969 4.042969,-0.917969 4.042967,0 6.640627,3.222656 2.59765,3.203125 2.59765,8.261719 0,5.058594 -2.59765,8.28125 -2.59766,3.203127 -6.640627,3.203127 -2.285157,0 -4.042969,-0.898439 -1.757813,-0.917969 -3.203125,-2.832032 z m 4.648437,-14.160156 q -2.246093,0 -3.457031,1.660156 -1.191406,1.640625 -1.191406,4.746094 0,3.105469 1.191406,4.765625 1.210938,1.640625 3.457031,1.640625 2.246094,0 3.417969,-1.640625 1.191405,-1.640625 1.191405,-4.765625 0,-3.125 -1.191405,-4.765625 -1.171875,-1.640625 -3.417969,-1.640625 z" style="fill:#ffffff"/>
  </g>
 </g>
</svg>
